X:1
T:The Centenary (Arthur Kearney)
L:1/8
Q:1/4=140
M:4/4
K:D
[K:D][M:4/4] D2 z2 .D2 .D2 |B2 z2 .A2 .A2 | D2 z2 .D2 .D2 | G2 z2 .A2 .A2 |
 D2 z2 .D2 .D2 | B2 z2 .A2 .A2 | F2 z2 .G2 .A2 |D6 z2 |
 z8 | z8 | z8 | z8 |
 D2 z2 .D2 .D2 | B2 z2 .A2 .A2 | F2 z2 .G2 .A2 | D6 z2 |:
